X: 3099
T: LARGO BAY
Q:"Strathspey."
R: Strathspey.
%R:strathspey
B: James Kerr "Merry Melodies" v.3 p.12 #99
Z: 2016 John Chambers <jc:trillian.mit.edu>
M: C
L: 1/8
K: A
|:\
vc<ue ve>ua vf>veuc>uA | G<E B>E c>EB>d |\
c<e e>a f>ec>A | F<B G>e c<A A>d :|
|:\
(3cBA E>A F>AE>d | (3cBA E>A F<B B>e |\
(3cBA E>A F>AE>c | (3def (3efd c<A A>d :|

%%sep 1 1 500
%%sep 1 1 500

